X: 5
T: CAPTAIN DRIVER'S DELIGHT
B: "Old English Country Dances", Frank Kidson ed., William Reeves pub., London 1890
Z: 2010-9-26 John Chambers <jc:trillian.mit.edu>
M: C
L: 1/8
K: A
|: e2cd e3 f | edcB c2BA | e2cd e2a2 | e2dc B4 :|
|: BAGA Bcdf | edcB c2BA | a2ec f2dB | ecdB A4 :|


%%sep 1 1 500

%%sep 1 1 500

